icons/hot-spring.svg

<?xml version="1.0" encoding="UTF-8"?>
<svg width="15" height="15" viewBox="0 0 15 15" xmlns="http://www.w3.org/2000/svg" id="hot-spring">
  <path d="M6.68243 5.75917C6.17755 5.03461 5.90147 4.63841 6.05256 3.38345 6.19176 2.22729 6.73053 1.76768 7.25024 1.32432 7.6543.979622 8.04684.64475 8.23115 0 8.53218.72151 8.1952 1.46958 7.88224 2.16432 7.57105 2.85514 7.28362 3.49322 7.67085 4 8.64208 5.27108 9.63433 6.87972 8.64208 8.58576 8.42776 8.97882 8.10321 9.2671 7.78077 9.55352 7.35829 9.92878 6.93943 10.3008 6.77686 10.9012 6.50799 10.2242 6.78522 9.53569 7.06149 8.84954 7.36728 8.09008 7.67188 7.33354 7.23353 6.59892 7.03059 6.25881 6.84469 5.99203 6.68243 5.75917ZM10.0533 4.58547C9.95503 3.95341 10.087 3.30458 10.4211 2.77653 10.7881 2.32699 11.1223 2.13424 11.4125 1.96681 11.7571 1.76802 12.0398 1.60493 12.2422 1.09012 12.5312 1.77367 12.2419 2.27826 11.938 2.80817 11.8193 3.01518 11.6983 3.22605 11.6088 3.45296 11.4174 4.06338 11.7099 4.34608 12.0755 4.69951 12.4336 5.04572 12.8619 5.4598 12.9744 6.3163 13.0578 6.95112 12.938 7.47257 12.602 8 12.246 8.43613 11.9212 8.65508 11.6374 8.84647 11.2813 9.08658 10.9895 9.2833 10.7809 9.81105 10.4894 9.12323 10.8123 8.55241 11.1343 7.98337 11.2573 7.76599 11.3801 7.54887 11.4685 7.32558 11.5415 6.76791 11.2348 6.4588 10.8872 6.10834 10.5304 5.74869 10.1305 5.3455 10.0533 4.58547ZM2.03512 4.58547C1.93689 3.95341 2.0401 3.28536 2.40296 2.77653 2.77929 2.24882 3.13207 2.05981 3.43808 1.89585 3.76141 1.72262 4.03253 1.57736 4.22408 1.09012 4.51269 1.77273 4.21029 2.29806 3.89884 2.83911 3.77657 3.05152 3.65291 3.26634 3.56306 3.49406 3.41122 3.87887 3.69362 4.50854 4.06372 4.73656 5.06535 5.53777 5.29084 7.02251 4.61098 8.0899 4.24538 8.53769 3.90721 8.73789 3.6119 8.91271 3.25876 9.12178 2.96692 9.29455 2.76278 9.81105 2.4847 9.15498 2.77094 8.63104 3.06243 8.09749 3.19329 7.85798 3.3252 7.61652 3.4076 7.36031 3.58665 6.80351 3.27319 6.47604 2.89763 6.0837 2.54859 5.71905 2.1459 5.29837 2.03512 4.58547Z"/>
  <path d="M13 8.99995C13.7 11.6163 9.5263 12 7.49997 12C5.47364 12 1.29997 11.5163 1.99997 8.99995C1.36654 9.31626 0.999969 9.96092 0.999969 10.5C0.999969 12.0187 3.91012 13.3999 7.49997 13.3999C11.0898 13.3999 14 12.0187 14 10.5C14 9.96092 13.6334 9.31626 13 8.99995Z"/>
</svg>

<?xml version="1.0" encoding="UTF-8"?>
<svg id="hot-spring" xmlns="http://www.w3.org/2000/svg" width="15" height="15" viewBox="0 0 15 15">
  <path d="M6.682,5.759c-.505-.725-.781-1.121-.63-2.376,.139-1.156,.678-1.616,1.198-2.059,.404-.345,.797-.68,.981-1.324,.301,.722-.036,1.47-.349,2.164-.311,.691-.599,1.329-.211,1.836,.971,1.271,1.963,2.88,.971,4.586-.214,.393-.539,.681-.861,.968-.422,.375-.841,.747-1.004,1.348-.269-.677,.008-1.366,.285-2.052,.306-.759,.61-1.516,.172-2.251-.203-.34-.389-.607-.551-.84Zm3.371-1.174c-.098-.632,.034-1.281,.368-1.809,.367-.45,.701-.642,.991-.81,.345-.199,.627-.362,.83-.877,.289,.684,0,1.188-.304,1.718-.119,.207-.24,.418-.329,.645-.191,.61,.101,.893,.467,1.247,.358,.346,.786,.76,.899,1.617,.083,.635-.036,1.156-.372,1.684-.356,.436-.681,.655-.965,.846-.356,.24-.648,.437-.856,.965-.292-.688,.031-1.259,.353-1.828,.123-.217,.246-.434,.334-.658,.073-.558-.234-.867-.581-1.217-.357-.36-.757-.763-.834-1.523Zm-8.018,0c-.098-.632,.005-1.3,.368-1.809,.376-.528,.729-.717,1.035-.881,.323-.173,.594-.318,.786-.806,.289,.683-.014,1.208-.325,1.749-.122,.212-.246,.427-.336,.655-.152,.385,.131,1.014,.501,1.242,1.002,.801,1.227,2.286,.547,3.353-.366,.448-.704,.648-.999,.823-.353,.209-.645,.382-.849,.898-.278-.656,.008-1.18,.3-1.714,.131-.24,.263-.481,.345-.737,.179-.557-.134-.884-.51-1.277-.349-.365-.752-.785-.863-1.498Zm10.965,4.414c.7,2.616-3.474,3-5.5,3s-6.2-.484-5.5-3c-.633,.316-1,.961-1,1.5,0,1.519,2.91,2.9,6.5,2.9s6.5-1.381,6.5-2.9c0-.539-.367-1.184-1-1.5Z"/>
</svg>
